X:1
T:6 Gesänge, Op.6
T:"Wie des Mondes Abbild"
T:6 Gesänge, Op.6 
T:2. "Wie des Mondes Abbild" "As the Moon's Reflection"
T:Robert Franz
T:Heinrich Heine
T:OpenScore (CC0)
C:Robert Franz
Z:Heinrich Heine
Z:OpenScore (CC0)
%%score 1 { ( 2 4 ) | ( 3 5 ) }
L:1/8
Q:1/4=50
M:4/4
K:Db
V:1 treble nm="Singstimme\nVoice"
V:2 treble nm="Pianoforte"
V:4 treble 
V:3 bass 
V:5 bass 
V:1
"^Larghetto tranquillo""^Leise, innig, sanft getragen"!p! d e | f2 d2 e2 f2 | (A3 B) A2 d c | %3
w: Wie des|Mon- des Ab- bild|zit- * tert in den|
w: As the|Moon's re- flec- tion|trem- * bles in the|
 e2 c2 d2 e2 |!>(! G4!>)! G2 c B | d2 B2 c2 d2 | %6
w: wil- den Mee- res-|wo- gen, und er|sel- ber still und|
w: wild tem- pes- tuous|O- cean whilst her-|self, she glides se-|
!>(! (e2 d!>)!c)"^poco riten."[Q:1/4=45]"^T" B2 A!<(! A | =G2!<)! A2!>(! (d2 c) B!>)! | %8
w: si- * * cher wan- delt|an dem Him- * mels-|
w: rene- * * ly thro' the|sky in si- * lent|
 (A2 B2) !breath!!fermata!A2[Q:1/4=50]"^a tempo"!p! d e | f2 d2 e2 f2 | (A3 B) A2 d c | %11
w: bo- * gen. Al- so|wan- delst du, Ge-|lieb- * te, still und|
w: mo- * tion. Thus thou|wan- der'st my be-|lov- * ed still and|
 e2 c z d2 e2 |!>(! G4!>)! G2 c B | d2 B2 c2 d2 |!>(! (e2 d!>)!c) B2!<(! A A | %15
w: si- cher, und es|zit- tert nur dein|Ab- bild mir im|Her- * * zen, weil mein|
w: safe- ly, and thy|im- age in my|bo- som trem- bles|on- * * ly, whilst my|
 _G2 B2!<)! (e2 d) c |!>(! d4!>)! A2 z2 | z4 !fermata!z2 |] %18
w: eig- nes Herz _ er-|schüt- tert.||
w: heart's so wild- * ly|beat- ing.||
V:2
!p! de | [fb][fb][db][db] [eb][eb][fb][fb] |!>(! a4-!>)! a2 z2 | %3
 [ea][ea][ca][ca] [da][da][ea][ea] |!>(! g4-!>)! g2 z2 | x8 |!>(! f4-!>)! f2 (.[_Af].[Af] | %7
!<(! .[=Ge].[Ge].[Ae]!<)!.[Ae])!>(! [Fd]2 [Ec][DB]!>)! | %8
 ([CEA]2 [D=GB]2 !breath!!fermata![CA]2)!p! de |"_dolcissimo" [fb][fb][db][db] [eb][eb][fb][fb] | %10
!>(! a4-!>)! a2 z2 | [ea][ea][ca][ca] [da][da][ea][ea] |!>(! g4-!>)! g2 z2 | %13
 [dg][dg][Bg][Bg] [cg][cg][dg][dg] |!>(! f4-!>)!!mf! f2 (.[_Af].[Af] | %15
 .[_GBe].[GBe].[GBe].[GBe])!>(! [GA]2 [FA]!>)!A |!p! ([D=G]2 AB [DF]2 _E>D) | D4 !fermata!z2 |] %18
V:3
 z2 |[K:treble]!ped! [GB][GB][FA][FA] [EG][EG][DF][DF]!ped-up! | E2 FG F2 z2 | %3
!ped! [FA][FA][EG][EG] [DF][DF][CE][CE]!ped-up! | D2 EF E2 z2 | %5
!ped! [EG][EG][DF][DF] [CE][CE][B,D][B,D]!ped-up! | C2 DE D2!ped! .[B,D].[B,D]!ped-up! | %7
[K:bass]!ped! (.[E,D].[E,D].[E,C].[E,C])!ped-up! (E,4 | ([E,,E,]4) !breath!!fermata!E,2) z2 | %9
[K:treble]!ped! [_GB][GB][FA][FA] [EG][EG][DF][DF]!ped-up! | E2 FG F2 z2 | %11
!ped! [FA][FA][EG][EG] [DF][DF][CE][CE]!ped-up! | D2 EF E2 z2 | %13
!ped! [EG][EG][DF][DF] [CE][CE][B,D][B,D]!ped-up! | C2 DE D2 (.[B,D].[B,D]) | %15
[K:bass] (.[E,D].[E,D].[E,D].[E,D]) A,3 G, | ([=E,__B,]2 [F,A,]_G, A,2) [G,C]2 | F,4 !fermata!z2 |] %18
V:4
 x2 | x8 | g2 fe d2 dc | x8 | f2 ed c2 cB | [dg][dg][Bg][Bg] [cg][cg][dg][dg] | e2 dc B2 x2 | %7
 x4 e4 | x8 | x8 | g2 fe d2 dc | x8 | f2 ed c2 cB | x8 | e2 dc B2 x2 | x4 C2 DE | x2 D2 x4 | x6 |] %18
V:5
 x2 |[K:treble] x8 | (C4 D2) x2 | x8 | (B,4 B,2) x2 | x8 | (=A,4 B,2) x2 |[K:bass] x8 | %8
 x4 A,,2 x2 |[K:treble] x8 | (C4 D2) x2 | x8 | (B,4 B,2) x2 | x8 | (=A,4 B,2) x2 |[K:bass] x8 | %16
 x6 A,,2- | [D,,A,,]4 x2 |] %18

